!!!OTL: 367. Boese Beispiele verderben gute Sitten.
!!!COM: Graun
!!!ODT: 1774
!!!ARE: Europa, Mitteleuropa, Deutschland
!!!SCT: B0367
!!!TXL: @@DE
!!!YEM: Copyright 1995, estate of Helmut Schaffrath.
**kern	**text
*ICvox	*
*Ivox	*
*clefG2	*
*M2/4	*
*k[f#]	*
*G:	*
=1	=1
!LO:TX:a:t=Tändelnd.	!
{8g	Als
8b	mich
8a	die
8cc	Ma-
=2	=2
(8.bL	-ma
16ccJ	.
8dd)	.
8r}	.
=3	=3
{8g	Hänschen
8b	.
8a	küſ-
8cc	-ſen
=4	=4
(8.bL	ſah,
16ccJ	.
8dd)	.
8r}	.
=5	=5
{8b	ſtrafte
16ggL	.
16eeJ	.
8dd	ſie
8cc#	mich
=6	=6
(4cc#	ab.
4dd)}	.
=7	=7
{8g	Als
8b	mich
8a	die
8cc	Ma-
=8	=8
(8.bL	-ma
16ccJ	.
8dd)	.
8r}	.
=9	=9
{8g	Hänschen
8b	.
8a	küſ-
8cc	-ſen
=10	=10
(8.bL	ſah,
16ccJ	.
8dd)	.
8r}	.
=11	=11
{8b	ſtrafte
16ggL	.
16eeJ	.
8dd	ſie
8cc#	mich
=12	=12
(4cc#	ab.
4dd)}	.
=13	=13
{8dd	Doch
16ccL	ſie
16bJ	.
8ee	lach-
8dd	-te
=14	=14
(8.ccL	ja,
16ddJ	.
8ee)	.
8r}	.
=15	=15
{8cc	als
16b\L	ihr
16aJ	.
8dd	der
8cc	Pa-
=16	=16
(8.bL	-pa
16ccJ	.
8dd)	.
8r}	.
=17	=17
{8b	heut'
16ddL	ein
16gJ	.
8b	Mäulchen
8a	.
=18	=18
4g	gab.
4r}	.
==	==
!!!AGN: Scherz - Lied, Liebe, Moral
!!!GTL: Liebeslieder - Liebeslust
!!!ONB: ESAC (Essen Associative Code) Database: BOEHME
!!!AMT: simple duple
!!!AIN: vox
!!!EED: Helmut Schaffrath
!!!EEV: 1.0
!!Graun. 1774. (Auserlesene Oden. 1774 Nr. 6).
!!!URL-scan: https://archive.org/details/BoehmeVtLieder1895/page/n305/mode/2up
!!!ENC: Anna Maria Matuszewska
!!!EEV: 2024/05/07
*-	*-
